X: 1
T: Miss Jeanetta McColl
T: 8 x 32R 3C (David Queen, Boston 50th)
P: Miss Jeanetta McColl
C: David Queen
C: from a B. McOwen arrangement
R: Reel
K: D
M: 4/4
L: 1/8
|: FE|"D"D2 DF "A"EDEF|"D"Dddc dAFA|"G"dDDc- cDBD|"Em"ABAF "A"(3EFG FE|"D"D2 DF "A"EDEF|
"D"Dddc dAFA|"G"dDDd "Em"cDBD|"A"(3EFG FE "D"D2 :||: Bc|"D"dDDc- "G"cDBD|"D"A2 AB AFED|
"D"dDDc- "G"cDBD|"Em"ABAF "A"EABc|"D"dDDc- "G"cDBD|"D"A2 AB AFEF|"G"Dddc dAFD|"A"(3EFG FE "D"D2 :|
